logo.svg

<?xml version="1.0" encoding="UTF-8" standalone="no"?>
<!-- Created with Inkscape (http://www.inkscape.org/) -->

<svg
   width="128"
   height="128"
   viewBox="0 0 128 128"
   version="1.1"
   id="svg1"
   inkscape:version="1.3.2 (091e20ef0f, 2023-11-25, custom)"
   sodipodi:docname="logo-utils.svg"
   xmlns:inkscape="http://www.inkscape.org/namespaces/inkscape"
   xmlns:sodipodi="http://sodipodi.sourceforge.net/DTD/sodipodi-0.dtd"
   xmlns:xlink="http://www.w3.org/1999/xlink"
   xmlns="http://www.w3.org/2000/svg"
   xmlns:svg="http://www.w3.org/2000/svg">
  <sodipodi:namedview
     id="namedview1"
     pagecolor="#ffffff"
     bordercolor="#000000"
     borderopacity="0.25"
     inkscape:showpageshadow="2"
     inkscape:pageopacity="0.0"
     inkscape:pagecheckerboard="0"
     inkscape:deskcolor="#d1d1d1"
     inkscape:document-units="px"
     inkscape:zoom="2"
     inkscape:cx="50.75"
     inkscape:cy="44.25"
     inkscape:window-width="994"
     inkscape:window-height="577"
     inkscape:window-x="755"
     inkscape:window-y="499"
     inkscape:window-maximized="0"
     inkscape:current-layer="layer1" />
  <defs
     id="defs1">
    <linearGradient
       id="linearGradient5"
       inkscape:collect="always">
      <stop
         style="stop-color:#211822;stop-opacity:1;"
         offset="0"
         id="stop5" />
      <stop
         style="stop-color:#7c5e88;stop-opacity:1;"
         offset="1"
         id="stop6" />
    </linearGradient>
    <inkscape:path-effect
       effect="fillet_chamfer"
       id="path-effect14"
       is_visible="true"
       lpeversion="1"
       nodesatellites_param="IC,0,0,1,0,11,0,1 @ IC,0,0,1,0,11,0,1 @ IC,0,0,1,0,11,0,1 @ IC,0,0,1,0,11,0,1"
       radius="11"
       unit="px"
       method="auto"
       mode="F"
       chamfer_steps="1"
       flexible="false"
       use_knot_distance="true"
       apply_no_radius="true"
       apply_with_radius="true"
       only_selected="false"
       hide_knots="false" />
    <inkscape:path-effect
       effect="fillet_chamfer"
       id="path-effect12"
       is_visible="true"
       lpeversion="1"
       nodesatellites_param="IC,0,0,1,0,11,0,1 @ IC,0,0,1,0,11,0,1 @ IC,0,0,1,0,11,0,1 @ IC,0,0,1,0,11,0,1"
       radius="11"
       unit="px"
       method="auto"
       mode="F"
       chamfer_steps="1"
       flexible="false"
       use_knot_distance="true"
       apply_no_radius="true"
       apply_with_radius="true"
       only_selected="false"
       hide_knots="false" />
    <inkscape:path-effect
       effect="bounding_box"
       linkedpath=""
       id="path-effect8"
       is_visible="true"
       lpeversion="1.3"
       visualbounds="false" />
    <inkscape:path-effect
       effect="vonkoch"
       id="path-effect7"
       is_visible="true"
       lpeversion="1"
       ref_path="M 0,16 H 32"
       generator="m 0,32 h 10.666667 m 10.666666,0 H 32"
       similar_only="false"
       nbgenerations="1"
       drawall="true"
       maxComplexity="1000" />
    <inkscape:path-effect
       effect="tiling"
       id="path-effect6"
       is_visible="true"
       lpeversion="1"
       unit="px"
       seed="1;1"
       lpesatellites=""
       num_rows="1"
       num_cols="1"
       gapx="0"
       gapy="0"
       offset="0"
       offset_type="false"
       scale="0"
       rotate="0"
       mirrorrowsx="false"
       mirrorrowsy="false"
       mirrorcolsx="false"
       mirrorcolsy="false"
       mirrortrans="false"
       shrink_interp="false"
       split_items="false"
       link_styles="false"
       interpolate_scalex="false"
       interpolate_scaley="true"
       interpolate_rotatex="false"
       interpolate_rotatey="true"
       random_scale="false"
       random_rotate="false"
       random_gap_y="false"
       random_gap_x="false"
       transformorigin="" />
    <inkscape:path-effect
       effect="construct_grid"
       id="path-effect3"
       is_visible="false"
       lpeversion="1"
       nr_x="10"
       nr_y="5" />
    <linearGradient
       id="linearGradient1"
       inkscape:collect="always">
      <stop
         style="stop-color:#f22323;stop-opacity:1;"
         offset="0.07417218"
         id="stop1" />
      <stop
         style="stop-color:#7124d6;stop-opacity:1;"
         offset="0.38406616"
         id="stop3" />
      <stop
         style="stop-color:#2b4a65;stop-opacity:1;"
         offset="0.9417218"
         id="stop2" />
    </linearGradient>
    <inkscape:path-effect
       effect="fillet_chamfer"
       id="path-effect1"
       is_visible="true"
       lpeversion="1"
       nodesatellites_param="IC,0,0,1,0,4,0,1 @ IC,0,0,1,0,4,0,1 @ IC,0,0,1,0,4,0,1 @ IC,0,0,1,0,4,0,1"
       radius="4"
       unit="px"
       method="auto"
       mode="F"
       chamfer_steps="1"
       flexible="false"
       use_knot_distance="true"
       apply_no_radius="true"
       apply_with_radius="true"
       only_selected="false"
       hide_knots="false" />
    <linearGradient
       inkscape:collect="always"
       xlink:href="#linearGradient1"
       id="linearGradient2"
       x1="0"
       y1="0"
       x2="32"
       y2="32"
       gradientUnits="userSpaceOnUse" />
    <filter
       style="color-interpolation-filters:sRGB;"
       inkscape:label="Blur"
       id="filter20"
       x="-0.15"
       y="-0.15"
       width="1.3"
       height="1.3">
      <feGaussianBlur
         stdDeviation="2 2"
         result="blur"
         id="feGaussianBlur20" />
    </filter>
    <filter
       style="color-interpolation-filters:sRGB;"
       inkscape:label="Blur"
       id="filter23"
       x="-0.42012602"
       y="-0.16159269"
       width="1.840252"
       height="1.3192633">
      <feGaussianBlur
         stdDeviation="5.870826"
         result="blur"
         id="feGaussianBlur23" />
    </filter>
    <linearGradient
       inkscape:collect="always"
       xlink:href="#linearGradient5"
       id="linearGradient6"
       x1="-123.05078"
       y1="230.89844"
       x2="-12.730469"
       y2="271.86914"
       gradientUnits="userSpaceOnUse"
       gradientTransform="rotate(-90,-95.637211,91.746583)" />
  </defs>
  <g
     inkscape:label="Слой 1"
     inkscape:groupmode="layer"
     id="layer1">
    <path
       style="fill:url(#linearGradient2);fill-opacity:1;stroke-width:5.496;stroke-linejoin:bevel;stroke-miterlimit:40.6"
       id="rect1"
       width="32"
       height="32"
       x="0"
       y="0"
       sodipodi:type="rect"
       d="m 4,0 h 24 l 4,4 v 24 l -4,4 H 4 L 0,28 V 4 Z"
       inkscape:path-effect="#path-effect1"
       transform="scale(4)"
       inkscape:label="bg polygon" />
    <path
       style="display:inline;fill:#000000;fill-opacity:1;stroke-width:5.496;stroke-linejoin:bevel;stroke-miterlimit:40.6;filter:url(#filter20)"
       id="rect11"
       width="32"
       height="32"
       x="0"
       y="0"
       rx="0"
       ry="0"
       sodipodi:type="rect"
       d="M 11,0 H 21 L 32,11 V 21 L 21,32 H 11 L 0,21 V 11 Z"
       inkscape:path-effect="#path-effect12"
       transform="scale(4)"
       inkscape:label="blurred polygon" />
    <path
       style="display:inline;fill:#000000;fill-opacity:1;stroke-width:5.496;stroke-linejoin:bevel;stroke-miterlimit:40.6"
       id="path12"
       width="32"
       height="32"
       x="0"
       y="0"
       rx="0"
       ry="0"
       sodipodi:type="rect"
       d="M 11,0 H 21 L 32,11 V 21 L 21,32 H 11 L 0,21 V 11 Z"
       inkscape:path-effect="#path-effect14"
       transform="scale(4)"
       inkscape:label="polygon" />
    <path
       id="rect22"
       style="fill:url(#linearGradient6);fill-opacity:1;stroke-width:1.23016"
       d="m 55.336906,8.8398407 -11.82226,11.8515623 0.01953,16.964844 11.80273,11.767578 v 69.736325 h 17.32618 V 49.455075 L 84.485346,37.603513 84.465816,20.638669 72.663086,8.8710907 V 33.531247 h -17.32618 z" />
  </g>
</svg>

<svg width="128" height="128" xmlns:xlink="http://www.w3.org/1999/xlink" xmlns="http://www.w3.org/2000/svg"><defs><linearGradient id="b"><stop style="stop-color:#211822;stop-opacity:1" offset="0"/><stop style="stop-color:#7c5e88;stop-opacity:1" offset="1"/></linearGradient><linearGradient id="a"><stop style="stop-color:#f22323;stop-opacity:1" offset=".074"/><stop style="stop-color:#7124d6;stop-opacity:1" offset=".384"/><stop style="stop-color:#2b4a65;stop-opacity:1" offset=".942"/></linearGradient><linearGradient xlink:href="#a" id="c" x1="0" y1="0" x2="32" y2="32" gradientUnits="userSpaceOnUse"/><linearGradient xlink:href="#b" id="e" x1="-123.051" y1="230.898" x2="-12.73" y2="271.869" gradientUnits="userSpaceOnUse" gradientTransform="rotate(-90 -95.637 91.747)"/><filter style="color-interpolation-filters:sRGB" id="d" x="-.15" y="-.15" width="1.3" height="1.3"><feGaussianBlur stdDeviation="2 2" result="blur"/></filter></defs><path style="fill:url(#c);fill-opacity:1;stroke-width:5.496;stroke-linejoin:bevel;stroke-miterlimit:40.6" d="M4 0h24l4 4v24l-4 4H4l-4-4V4z" transform="scale(4)"/><path style="display:inline;fill:#000;fill-opacity:1;stroke-width:5.496;stroke-linejoin:bevel;stroke-miterlimit:40.6;filter:url(#d)" d="M11 0h10l11 11v10L21 32H11L0 21V11z" transform="scale(4)"/><path style="display:inline;fill:#000;fill-opacity:1;stroke-width:5.496;stroke-linejoin:bevel;stroke-miterlimit:40.6" d="M11 0h10l11 11v10L21 32H11L0 21V11z" transform="scale(4)"/><path style="fill:url(#e);fill-opacity:1;stroke-width:1.23016" d="M55.337 8.84 43.515 20.69l.02 16.965 11.802 11.768v69.736h17.326V49.455l11.822-11.851-.02-16.965L72.664 8.87v24.66H55.337z"/></svg>
